src/pos-icons/nintendo-switch.svg

<svg height="24" viewBox="0 0 24 24" width="24" xmlns="http://www.w3.org/2000/svg"><path d="m10.04 20.4h-2.92c-.93 0-1.82-.4-2.48-1.04-.64-.66-1.04-1.55-1.04-2.48v-9.76c0-.93.4-1.82 1.04-2.48.66-.64 1.55-1.02 2.48-1.02h2.92zm-2.92-18.4a5.12 5.12 0 0 0 -5.12 5.12v9.76c0 2.83 2.29 5.12 5.12 5.12h4.53v-20zm-2.01 6c0 1.04.84 1.88 1.89 1.88 1.03 0 1.87-.84 1.87-1.88s-.84-1.88-1.87-1.88c-1.05 0-1.89.84-1.89 1.88m12.5 3c1.11 0 2.01.89 2.01 2 0 1.12-.9 2-2.01 2s-2.03-.88-2.03-2c0-1.11.92-2 2.03-2m-.73 11a5.12 5.12 0 0 0 5.12-5.12v-9.76c0-2.83-2.29-5.12-5.12-5.12h-3.23v20z"/></svg>

<?xml version="1.0" encoding="UTF-8"?><!DOCTYPE svg PUBLIC "-//W3C//DTD SVG 1.1//EN" "http://www.w3.org/Graphics/SVG/1.1/DTD/svg11.dtd"><svg xmlns="http://www.w3.org/2000/svg" xmlns:xlink="http://www.w3.org/1999/xlink" version="1.1" id="mdi-nintendo-switch" width="24" height="24" viewBox="0 0 24 24"><path d="M10.04,20.4H7.12C6.19,20.4 5.3,20 4.64,19.36C4,18.7 3.6,17.81 3.6,16.88V7.12C3.6,6.19 4,5.3 4.64,4.64C5.3,4 6.19,3.62 7.12,3.62H10.04V20.4M7.12,2A5.12,5.12 0 0,0 2,7.12V16.88C2,19.71 4.29,22 7.12,22H11.65V2H7.12M5.11,8C5.11,9.04 5.95,9.88 7,9.88C8.03,9.88 8.87,9.04 8.87,8C8.87,6.96 8.03,6.12 7,6.12C5.95,6.12 5.11,6.96 5.11,8M17.61,11C18.72,11 19.62,11.89 19.62,13C19.62,14.12 18.72,15 17.61,15C16.5,15 15.58,14.12 15.58,13C15.58,11.89 16.5,11 17.61,11M16.88,22A5.12,5.12 0 0,0 22,16.88V7.12C22,4.29 19.71,2 16.88,2H13.65V22H16.88Z" /></svg>
